packages/merlin-www-assets/imports/houseandgarden/icons/gallery-zoom-close.svg

<svg viewBox="0 0 20 20" xmlns="http://www.w3.org/2000/svg"><path d="m10 0a10 10 0 1 0 10 10 10 10 0 0 0 -10-10zm0 18.7a8.7 8.7 0 1 1 8.7-8.7 8.7 8.7 0 0 1 -8.7 8.7z"/><path d="m13.12 6.09-3.05 3.05-3.07-3.05-.9.91 3.05 3.05-3.05 3.06.9.89 3.07-3 3.05 3 .92-.92-3.04-3.02 3-3.06-.92-.92"/></svg>

<svg xmlns="http://www.w3.org/2000/svg" viewBox="0 0 20 20"><title>gallery-zoom-close</title><path d="M10,0A10,10,0,1,0,20,10,10,10,0,0,0,10,0Zm0,18.7A8.7,8.7,0,1,1,18.7,10,8.7,8.7,0,0,1,10,18.7Z"/><path d="M13.12,6.09,10.07,9.14,7,6.09,6.1,7l3.05,3.05L6.1,13.11,7,14,10.07,11,13.12,14l.92-.92L11,10.06,14,7l-.92-.92"/></svg>
